svg/moped_outline.svg

<svg xmlns="http://www.w3.org/2000/svg" viewBox="0 0 24 24"><path d="M19 7a2 2 0 0 0-2-2h-3v2h3v2.65L13.5 14H10V9H6c-2.21 0-4 1.79-4 4v3h2c0 1.66 1.34 3 3 3s3-1.34 3-3h4.5l4.5-5.65zM7 17c-.55 0-1-.45-1-1h2c0 .55-.45 1-1 1m1-3H4v-1c0-1.1.9-2 2-2h2zm11-1c-1.66 0-3 1.34-3 3s1.34 3 3 3 3-1.34 3-3-1.34-3-3-3m0 4c-.55 0-1-.45-1-1s.45-1 1-1 1 .45 1 1-.45 1-1 1m-9-9H5V6h5z"/></svg>

<?xml version="1.0" encoding="UTF-8"?><!DOCTYPE svg PUBLIC "-//W3C//DTD SVG 1.1//EN" "http://www.w3.org/Graphics/SVG/1.1/DTD/svg11.dtd"><svg xmlns="http://www.w3.org/2000/svg" xmlns:xlink="http://www.w3.org/1999/xlink" version="1.1" id="mdi-moped-outline" width="24" height="24" viewBox="0 0 24 24"><path d="M19 7C19 5.9 18.11 5 17 5H14V7H17V9.65L13.5 14H10V9H6C3.79 9 2 10.79 2 13V16H4C4 17.66 5.34 19 7 19S10 17.66 10 16H14.5L19 10.35V7M7 17C6.45 17 6 16.55 6 16H8C8 16.55 7.55 17 7 17M8 14H4V13C4 11.9 4.9 11 6 11H8V14M19 13C17.34 13 16 14.34 16 16S17.34 19 19 19 22 17.66 22 16 20.66 13 19 13M19 17C18.45 17 18 16.55 18 16S18.45 15 19 15 20 15.45 20 16 19.55 17 19 17M10 8H5V6H10V8Z" /></svg>
